symbols/web/17mp/materialsymbolssharp/17mp_wght600gradN25_20px.svg

<svg xmlns="http://www.w3.org/2000/svg" height="20" width="20"><path d="M7.208 9.729h1.209V4.875H5.958v1.208h1.25Zm3.792 0h1.438l1.5-4.854H10v1.208h2.104Zm-8.708 7.979V2.292h15.416v15.416Zm2.187-2.187h11.042V4.479H4.479Zm.667-.417h1.208v-3.5h.813v2.375h1.208v-2.375h.833v3.5h1.209v-4.708H5.146Zm6.042 0h1.208v-1.125h2.458v-3.583h-3.666Zm1.208-3.5h1.25v1.167h-1.25ZM4.479 4.479v11.042Z"/></svg>

<svg xmlns="http://www.w3.org/2000/svg" height="20" width="20"><path d="M7.208 9.729H8.417V4.875H5.958V6.083H7.208ZM11 9.729H12.438L13.938 4.875H10V6.083H12.104ZM2.292 17.708V2.292H17.708V17.708ZM4.479 15.521H15.521V4.479H4.479ZM5.146 15.104H6.354V11.604H7.167V13.979H8.375V11.604H9.208V15.104H10.417V10.396H5.146ZM11.188 15.104H12.396V13.979H14.854V10.396H11.188ZM12.396 11.604H13.646V12.771H12.396ZM4.479 4.479V15.521Z"/></svg>
